X: 10411
M: C|
L: 1/8
K: A
(de)(cd) (Bc)(AB) | EAGB A2A2 :: e2 | a2(ga) aece | (aA)(gA) (fA)(eA) | dfdB cecA | BEBA GABc |
ccee (aA)(eA) | fdBd ecAc |[1 dfdB cecA | EAGB A2A2 :|[2 decd BcAB | EABG A2B2 :|


